src/categories-icons-sprite/categories/svg-cat-hobby-floristy.svg

<svg width="31" height="30" viewBox="0 0 31 30" fill="none" xmlns="http://www.w3.org/2000/svg">
<path class="p-94E368" d="M14.744 25.2012C12.5685 23.0257 9.44815 22.4165 6.68828 23.3116C7.58333 20.5766 6.98663 17.4438 4.79872 15.2559L2.93396 13.3911L2.31235 14.0127C-0.770783 17.0959 -0.770783 21.2355 2.31235 24.3187L4.79866 26.805C6.34017 28.3465 8.37893 29.9999 10.3929 29.9998C12.4317 29.9999 14.4456 29.2291 15.9871 27.6876L16.6087 27.066L14.744 25.2012Z" fill="#A1D1FD"/>
<path class="p-55BF60" d="M16.6082 27.0659L15.9866 27.6875C14.445 29.2291 12.4311 29.9999 10.3924 29.9998C8.37834 29.9999 6.33964 28.3465 4.79813 26.805L4.4375 25.5618L6.68762 23.3117C9.4475 22.4166 12.5678 23.0257 14.7434 25.2012L16.6082 27.0659Z" fill="#4D98CB"/>
<path class="p-94E368" d="M10.7612 17.9944L0.135742 28.6199L1.3789 29.863L12.0043 19.2376L10.7612 17.9944Z" fill="#A1D1FD"/>
<path class="p-55BF60" d="M0.758304 29.2419L1.37988 29.8635L12.0053 19.2381L11.3837 18.6165L0.758304 29.2419Z" fill="#4D98CB"/>
<path class="p-FBC56D" d="M26.9235 19.2377C27.6818 18.4793 28.0423 17.4475 27.9428 16.4032C28.8876 15.9805 29.6211 15.1475 29.8822 14.1157C30.1681 13.0839 29.9569 12.0024 29.3476 11.1695C29.9567 10.3116 30.1681 9.23011 29.8823 8.19828C29.6087 7.17887 28.8876 6.33352 27.9428 5.91087C28.0423 4.86655 27.6818 3.83472 26.9235 3.07639C26.1775 2.33043 25.1208 1.96996 24.1014 2.06941C23.6788 1.12466 22.8334 0.4036 21.8017 0.117732C20.7822 -0.155713 19.7006 0.0554946 18.8428 0.664737C18.0099 0.0554946 16.9284 -0.155713 15.8965 0.130097C14.8647 0.391176 14.0318 1.12472 13.6091 2.06952C12.5648 1.97007 11.5206 2.31818 10.7623 3.07651C10.0163 3.82247 9.65578 4.87909 9.76765 5.91098C8.81036 6.34606 8.08931 7.16651 7.81586 8.21076C7.54242 9.23023 7.75374 10.3117 8.35044 11.1571C7.75368 12.0025 7.54242 13.084 7.8035 14.1159C8.08942 15.1477 8.82285 15.9807 9.76765 16.4033C9.65572 17.4351 10.0163 18.4918 10.7623 19.2378C11.5206 19.9961 12.5648 20.3442 13.6091 20.2448C14.0318 21.1896 14.8648 21.923 15.8842 22.1966C16.9284 22.47 18.0098 22.2587 18.8553 21.662C19.452 22.0846 20.1606 22.3208 20.9065 22.3208C21.2048 22.3208 21.5032 22.2711 21.8016 22.1964C22.8458 21.923 23.6664 21.202 24.1014 20.2447C25.1333 20.3565 26.1775 19.9836 26.9235 19.2377Z" fill="#B9DFFC"/>
<path class="p-EBAE56" d="M24.1019 20.2448C23.6668 21.2021 22.8462 21.923 21.802 22.1965C21.5037 22.2712 21.2053 22.3209 20.9069 22.3209C20.1611 22.3209 19.4524 22.0847 18.8557 21.6621C18.0103 22.2588 16.9288 22.4701 15.8846 22.1967C14.8652 21.9231 14.0322 21.1897 13.6095 20.2449C12.5652 20.3443 11.521 19.9962 10.7627 19.2379L26.924 3.07666C27.6823 3.83499 28.0428 4.86682 27.9433 5.91114C28.8881 6.33379 29.6092 7.17914 29.8827 8.19855C30.1686 9.23038 29.9572 10.3119 29.3481 11.1698C29.9573 12.0026 30.1686 13.0842 29.8827 14.116C29.6216 15.1478 28.8882 15.9808 27.9433 16.4035C28.0428 17.4478 27.6823 18.4796 26.924 19.2379C26.178 19.9838 25.1337 20.3567 24.1019 20.2448Z" fill="#76B7E2"/>
<path class="p-EBAE56" d="M24.5364 13.519C24.8597 12.7482 23.8901 11.8655 23.4674 11.1694C23.8901 10.4732 24.8721 9.60295 24.5364 8.81978C24.2132 8.02412 23.5419 9.24229 22.7463 9.04339L21.8513 8.14843C21.6524 7.35277 22.0004 5.81136 21.2172 5.47568C20.4215 5.15243 19.5638 6.12204 18.8551 6.55723C18.159 6.10962 17.2887 5.15248 16.5055 5.46326C15.7223 5.79894 16.0454 7.34035 15.859 8.14843C15.0509 8.33485 13.4971 7.99927 13.1738 8.79493C12.8382 9.57811 13.8078 10.4608 14.243 11.1445C13.8078 11.8532 12.8382 12.7109 13.1614 13.5066C13.4847 14.3023 15.0386 13.9666 15.8467 14.1531C16.0331 14.9611 15.6975 16.5151 16.4932 16.8383C17.2763 17.1739 18.1342 16.2043 18.8428 15.7692C19.5514 16.2043 20.4216 17.1615 21.2048 16.8507C21.9756 16.5275 21.6524 14.9612 21.8513 14.1655C22.6344 13.979 24.2008 14.3021 24.5364 13.519Z" fill="#A1D1FD"/>
<path class="p-CC9249" d="M15.8467 14.1533L21.8513 8.14868L21.8637 8.16105C22.6594 8.36001 24.2132 8.02442 24.5364 8.82002C24.8721 9.6032 23.8901 10.4735 23.4674 11.1696C23.8901 11.8658 24.8597 12.7485 24.5364 13.5192C24.2008 14.3024 22.6345 13.9793 21.8513 14.1656C21.6524 14.9614 21.9755 16.5277 21.2048 16.8509C20.4216 17.1617 19.5513 16.2046 18.8427 15.7694C18.1341 16.2045 17.2763 17.1741 16.4931 16.8385C15.6975 16.5153 16.0331 14.9613 15.8467 14.1533Z" fill="#4D98CB"/>
<path class="p-FBC56D" d="M18.8428 9.91407L17.5996 11.1572L18.8428 12.4004L20.0859 11.1572L18.8428 9.91407Z" fill="#B9DFFC"/>
<path class="p-EBAE56" d="M19.4648 10.5359L18.2217 11.7791L18.8433 12.4006L20.0864 11.1575L19.4648 10.5359Z" fill="#A1D1FD"/>
</svg>

<svg width="31" height="30" fill="none" xmlns="http://www.w3.org/2000/svg"><path class="p-94E368" d="M14.744 25.201c-2.175-2.175-5.296-2.785-8.056-1.89.895-2.734.299-5.867-1.89-8.055L2.935 13.39l-.622.622c-3.083 3.083-3.083 7.222 0 10.306L4.8 26.805C6.34 28.346 8.379 30 10.393 30c2.039 0 4.053-.77 5.594-2.312l.622-.622-1.865-1.865z" fill="#A1D1FD"/><path class="p-55BF60" d="M16.608 27.066l-.621.622A7.865 7.865 0 0110.392 30c-2.014 0-4.052-1.654-5.594-3.195l-.36-1.243 2.25-2.25c2.76-.895 5.88-.286 8.055 1.89l1.865 1.864z" fill="#4D98CB"/><path class="p-94E368" d="M10.761 17.994L.136 28.62l1.243 1.243 10.625-10.625-1.243-1.244z" fill="#A1D1FD"/><path class="p-55BF60" d="M.758 29.242l.622.621 10.625-10.625-.621-.622L.758 29.242z" fill="#4D98CB"/><path class="p-FBC56D" d="M26.924 19.238a3.515 3.515 0 001.019-2.835 3.447 3.447 0 001.94-2.287 3.433 3.433 0 00-.535-2.947c.609-.857.82-1.939.534-2.97a3.507 3.507 0 00-1.94-2.288 3.515 3.515 0 00-3.84-3.842 3.55 3.55 0 00-2.3-1.951 3.532 3.532 0 00-2.96.547A3.434 3.434 0 0015.898.13a3.446 3.446 0 00-2.288 1.94 3.531 3.531 0 00-2.847 1.007 3.496 3.496 0 00-.994 2.834 3.484 3.484 0 00-1.952 2.3 3.535 3.535 0 00.534 2.946 3.604 3.604 0 00-.546 2.959 3.547 3.547 0 001.964 2.287 3.496 3.496 0 00.994 2.835 3.532 3.532 0 002.847 1.007 3.504 3.504 0 002.275 1.952 3.574 3.574 0 002.971-.535 3.538 3.538 0 002.052.659c.298 0 .596-.05.895-.125a3.484 3.484 0 002.3-1.951 3.48 3.48 0 002.822-1.007z" fill="#B9DFFC"/><path class="p-EBAE56" d="M24.102 20.245a3.484 3.484 0 01-2.3 1.951 3.692 3.692 0 01-.895.125 3.538 3.538 0 01-2.051-.659 3.574 3.574 0 01-2.971.535 3.504 3.504 0 01-2.275-1.952 3.532 3.532 0 01-2.847-1.007L26.924 3.077a3.515 3.515 0 011.02 2.834A3.507 3.507 0 0129.882 8.2a3.503 3.503 0 01-.535 2.97c.61.834.82 1.915.535 2.947a3.446 3.446 0 01-1.94 2.288 3.515 3.515 0 01-1.019 2.834 3.48 3.48 0 01-2.822 1.007z" fill="#76B7E2"/><path class="p-EBAE56" d="M24.536 13.519c.324-.77-.646-1.653-1.069-2.35.423-.696 1.405-1.566 1.07-2.35-.324-.795-.995.423-1.79.224l-.896-.895c-.199-.795.15-2.337-.634-2.672-.795-.324-1.653.646-2.362 1.081-.696-.447-1.566-1.405-2.35-1.094-.783.336-.46 1.877-.646 2.685-.808.187-2.362-.149-2.685.647-.336.783.634 1.666 1.069 2.35-.435.708-1.405 1.566-1.082 2.362.324.795 1.878.46 2.686.646.186.808-.15 2.362.646 2.685.783.336 1.641-.634 2.35-1.069.708.435 1.579 1.393 2.362 1.082.77-.323.447-1.89.646-2.685.783-.187 2.35.136 2.685-.647z" fill="#A1D1FD"/><path class="p-CC9249" d="M15.847 14.153L21.85 8.15l.013.012c.795.199 2.35-.137 2.672.659.336.783-.646 1.653-1.069 2.35.423.696 1.393 1.579 1.07 2.35-.336.782-1.902.46-2.686.646-.199.795.125 2.362-.646 2.685-.783.31-1.654-.646-2.362-1.082-.709.435-1.567 1.405-2.35 1.07-.795-.324-.46-1.878-.646-2.686z" fill="#4D98CB"/><path class="p-FBC56D" d="M18.843 9.914L17.6 11.157l1.243 1.243 1.243-1.243-1.243-1.243z" fill="#B9DFFC"/><path class="p-EBAE56" d="M19.465 10.536l-1.243 1.243.621.622 1.243-1.243-.621-.622z" fill="#A1D1FD"/></svg>
